icon/lg/keystonejs.svg

<?xml version="1.0" encoding="UTF-8"?>
<svg viewBox="0 0 256 256" version="1.1" xmlns="http://www.w3.org/2000/svg" xmlns:xlink="http://www.w3.org/1999/xlink" preserveAspectRatio="xMidYMid" height="1em" width="1em">
  <defs>
    <linearGradient x1="0%" y1="0%" x2="50%" y2="71.921%" id="linearGradient-1">
      <stop stop-color="#5AE8FA" offset="0%"/>
      <stop stop-color="#2684FF" offset="100%"/>
    </linearGradient>
  </defs>
  <g>
    <path d="M59.6689455,0 L196.331055,0 C217.078691,0 224.603927,2.16087273 232.188509,6.21730909 C239.774255,10.2737455 245.726255,16.2269091 249.782691,23.8114909 C253.840291,31.3972364 256,38.9201455 256,59.6689455 L256,196.331055 C256,217.078691 253.840291,224.602764 249.782691,232.188509 C245.726255,239.773091 239.774255,245.726255 232.188509,249.782691 C224.603927,253.839127 217.079855,256 196.331055,256 L59.6689455,256 C38.9213091,256 31.3972364,253.839127 23.8114909,249.782691 C16.2269091,245.726255 10.2737455,239.773091 6.21730909,232.188509 C2.16087273,224.602764 5.68434189e-14,217.079855 5.68434189e-14,196.331055 L5.68434189e-14,59.6689455 C5.68434189e-14,38.9213091 2.16087273,31.3972364 6.21730909,23.8114909 C10.2737455,16.2269091 16.2269091,10.2737455 23.8114909,6.21730909 C31.3972364,2.16087273 38.9201455,0 59.6689455,0 Z M73.3556364,66.048 L73.3556364,198.981818 L102.586182,198.981818 L102.586182,156.16 L119.342545,139.217455 L159.371636,198.981818 L196.049455,198.981818 L139.077818,118.551273 L191.022545,66.048 L154.530909,66.048 L102.586182,121.157818 L102.586182,66.048 L73.3556364,66.048 L73.3556364,66.048 Z" fill="url(#linearGradient-1)"/>
  </g>
</svg>

<svg width="256" height="256" xmlns="http://www.w3.org/2000/svg" preserveAspectRatio="xMidYMid"><defs><linearGradient x1="0%" y1="0%" x2="50%" y2="71.921%" id="a"><stop stop-color="#5AE8FA" offset="0%"/><stop stop-color="#2684FF" offset="100%"/></linearGradient></defs><path d="M59.669 0H196.33c20.748 0 28.273 2.16 35.858 6.217 7.585 4.057 13.537 10.01 17.594 17.594C253.84 31.397 256 38.921 256 59.67V196.33c0 20.748-2.16 28.272-6.217 35.858-4.057 7.584-10.009 13.537-17.594 17.594-7.585 4.056-15.11 6.217-35.858 6.217H59.67c-20.748 0-28.272-2.16-35.858-6.217-7.584-4.057-13.537-10.01-17.594-17.594C2.161 224.603 0 217.079 0 196.33V59.67C0 38.92 2.16 31.397 6.217 23.81c4.057-7.584 10.01-13.537 17.594-17.594C31.397 2.161 38.921 0 59.67 0Zm13.687 66.048v132.934h29.23V156.16l16.757-16.943 40.029 59.765h36.677l-56.971-80.43 51.945-52.504H154.53l-51.945 55.11v-55.11h-29.23Z" fill="url(#a)"/></svg>
